X:1
T: Miss Downing's Fancy
C:
R:Jig
Q:180
K:Em
M:6/8
L:1/16
E4F2 G2F2G2|A2G2A2 B4e2|E4F2 G2F2G2|A2F2D2 F2G2A2|E4F2 G2F2G2|A2G2A2 B2c2d2|e2d2B2 c2B2A2|B2A2G2 F2E2D2|
E4F2 G2F2G2|A2G2A2 B4e2|E4F2 G2F2G2|A2F2D2 F2G2A2|E4F2 G2F2G2|A2G2A2 B2c2d2|e2d2B2 c2B2A2|B2G2E2 E6|
e4f2 g2f2e2|d2B2d2 e6|B2e2e2 B2e2e2|f2d2B2 d2e2f2|e4f2 g2f2e2|d2B2d2 e4f2|g2f2e2 d2B2G2|A2G2A2 B2G2E2|
e4f2 g2f2e2|d2B2d2 e6|B2e2e2 B2e2e2|f2d2B2 d2e2f2|e4f2 g2f2e2|d2B2d2 e4f2|g2f2e2 d2B2G2|B2A2G2 F2E2D2||
